!!!COM: Haydn, Franz Joseph
!!!OTL: String Quartet in G major
!!!OPS: Opus 1
!!!ONM: No. 4
!!!OMD: Minuetto II
!!!OMV: 4
!!!SCT: H III:4
!!!SCA: Thematisch-bibliographisches Werkevererzeichnis (A. van Hoboken)
!!!YOR: Bremner Edition, 1772
!!!ENC: Frances Bennion
!!!CDT: 1732/3/31/-1809/5/31/
!!!CNT: Oesterreich
!!!YEC: Copyright (c) 1994, 2000 Center for Computer Assisted Research in the Humanities
!!!YEM: Rights to all derivative editions reserved.
!!!YEM: Refer to licensing agreement for further details.
!!!YEN: United States of America
**kern	**kern	**kern	**kern
*k[f#]	*k[f#]	*k[f#]	*k[f#]
*G:	*G:	*G:	*G:
*clefF4	*clefC3	*clefF	*clefF
*M3/4	*M3/4	*M3/4	*M3/4
4GG	4G	4.G	4.g
4B	4b	.	.
.	.	8A	8a
4G	4g	4B	4b
=2	=2	=2	=2
4A	4a	4c	4cc
4F#	4f#	4A	4a
4D	4d	4A	4a
=3	=3	=3	=3
4G	4g	4B	4b
4E	4e	4B	4b
4A	4a	8.c#	8.cc#
.	.	32B	32b
.	.	32c#	32cc#
=4	=4	=4	=4
4F#	4f#	2d	2dd
8A	8a	.	.
8F#	8f#	.	.
4D	4d	4r	4r
=5	=5	=5	=5
4C	4c	4e	4ee
4c	4cc	4e	4ee
4A	4a	8.f#	8.ff#
.	.	32e	32ee
.	.	32f#	32ff#
=6	=6	=6	=6
4B	4b	4..g	4gg
4GG	4G	.	8.gg
.	.	16a	16aa
8.G	8.g	8.b	8.bb
16A	16a	16cc	16ccc
=7	=7	=7	=7
4B	4b	4dd	4ddd
4F#	4f#	4cc	4ccc
4G	4g	8.b	8.bb
.	.	32a	32aa
.	.	32b	32bb
=8	=8	=8	=8
4d	4dd	4a	4aa
4D	4d	2r	2r
4r	4r	.	.
=9	=9	=9	=9
4D	2.cc	2.ff#	4.aa
4D	.	.	.
.	.	.	8bb
4D	.	.	4ccc
=10	=10	=10	=10
4D	2.b	2.gg	8.bb
.	.	.	32aa
.	.	.	32bb
4D	.	.	4ddd
4D	.	.	4r
=11	=11	=11	=11
4D	2.f#	2.cc	4.ff#
4D	.	.	.
.	.	.	8gg
4D	.	.	4aa
=12	=12	=12	=12
4D	2.g	2.b	8gg
.	.	.	16ff#
.	.	.	16ee
4D	.	.	4dd
4D	.	.	4r
=13	=13	=13	=13
4D	2.c	2.f#	4.a
4D	.	.	.
.	.	.	8b
4D	.	.	4cc
=14	=14	=14	=14
4D	2.B	2.g	8.b
.	.	.	32a
.	.	.	32b
4D	.	.	4dd
4D	.	.	4r
=15	=15	=15	=15
4D	4d	4.b	4.dd
4D	4d	.	.
.	.	8a	8cc
4D	4d	4g	4b
=16	=16	=16	=16
4D	4d	4g	4b
4DD	4D	4f#	4a
4r	4r	4r	4r
=17	=17	=17	=17
4GG	4G	4.G	4.g
4B	4b	.	.
.	.	8A	8a
4G	4g	4B	4b
=18	=18	=18	=18
4A	4a	4c	4cc
4F#	4f#	4A	4a
4D	4d	4A	4a
=19	=19	=19	=19
4G	4g	4B	4b
4E	4e	4B	4b
4A	4a	8.c#	8.cc#
.	.	32B	32b
.	.	32c#	32cc#
=20	=20	=20	=20
4F#	4f#	2d	2dd
8A	8a	.	.
8F#	8f#	.	.
4D	4d	4r	4r
=21	=21	=21	=21
4C	4c	4e	4ee
4c	4cc	4e	4ee
4A	4a	8.f#	8.ff#
.	.	32e	32ee
.	.	32f#	32ff#
=22	=22	=22	=22
4B	4b	4..g	4gg
4G	4g	.	8.gg
.	.	16a	16aa
4r	4r	8.b	8.bb
.	.	16cc	16ccc
=23	=23	=23	=23
4GG	4G	4dd	4ddd
4B	4b	4dd	4ddd
4G	4g	4dd	4ddd
=24	=24	=24	=24
4E	4e	4.cc	4.ccc
4F#	4f#	.	.
.	.	8a	8aa
4G	4g	4b	4bb
=25	=25	=25	=25
4c	4cc	4a	4aa
4d	4dd	4g	4gg
4D	4d	4f#	4ff#
=26	=26	=26	=26
4G	4g	2.g	2gg
8D	8d	.	.
8BB	8B	.	.
4GG	4G	.	4r
=27	=27	=27	=27
4GG	4G	2.r	4g
4BB-	4B-	.	8dd
.	.	.	8cc
4D	4d	.	8b-
.	.	.	8a
=28	=28	=28	=28
4G	4g	4g	4.b-
4r	4r	8dd	.
.	.	8cc	8a
4d	4dd	8b-	8g
.	.	8a	8f#
=29	=29	=29	=29
4G	4g	4.b-	4g
4r	4r	.	8dd
.	.	8a	8cc
4D	4d	8g	8b-
.	.	8f#	8a
=30	=30	=30	=30
4G	4g	4g	4.b-
4r	4r	8dd	.
.	.	8cc	8a
4d	4dd	8b-	8g
.	.	8a	8f#
=31	=31	=31	=31
4G	4g	4.b-	4g
4r	4r	.	4b-
.	.	8a	.
4d	4dd	8g	4dd
.	.	8f#	.
=32	=32	=32	=32
4B-	4b-	4g	4gg
4r	4r	4b-	4dd
4F#	4f#	4dd	4cc
=33	=33	=33	=33
4G	4g	4gg	2b-
4r	4r	4dd	.
4F#	4f#	4cc	4a
=34	=34	=34	=34
4G	4g	4b-	4g
4G	4g	4b-	4ee-
4F	4f	4a	4dd
=35	=35	=35	=35
2E-	2e-	2g	4.cc
.	.	.	8a
4D	4d	4f	4b-
=36	=36	=36	=36
2E-	2e-	2g	4.cc
.	.	.	8a
4D	4d	4f	4b-
=37	=37	=37	=37
4E-	4e-	12ee-	12gg
.	.	12dd	12ff
.	.	12cc	12ee-
4F	4f	4b-	4dd
4FF	4F	4a	4cc
=38	=38	=38	=38
4BB-	4B-	2b-	2b-
4B-	4b-	.	.
4r	4r	4r	4r
=39	=39	=39	=39
2.r	2.r	2.r	4b-
.	.	.	8ff
.	.	.	8ee-
.	.	.	8dd
.	.	.	8cc
=40	=40	=40	=40
2.r	2.r	4B-	4.dd
.	.	8f	.
.	.	8e-	8cc
.	.	8d	8b-
.	.	8c	8a
=41	=41	=41	=41
4BB-	4B-	4d	4b-
8G	8g	2d	2b
8F	8f	.	.
8E-	8e-	.	.
8D	8d	.	.
=42	=42	=42	=42
4C	4c	4e-	4cc
2r	2r	2r	8gg
.	.	.	8ff
.	.	.	8ee-
.	.	.	8dd
=43	=43	=43	=43
2.r	2.r	4c	4.ee-
.	.	8g	.
.	.	8f	8dd
.	.	8e-	8cc
.	.	8d	8b
=44	=44	=44	=44
4C	4c	4e-	4cc
8A	8a	2e	2cc#
8G	8g	.	.
8F#	8f#	.	.
8E	8e	.	.
=45	=45	=45	=45
4D	4d	4f#	4dd
2r	8cc	8ee-	4r
.	8b-	8dd	.
.	8a	8cc	4ee-
.	8g	8b-	.
=46	=46	=46	=46
4D	4f#	4a	4ee-
2r	8b-	8dd	[2dd
.	8a	8cc	.
.	8g	8b-	.
.	8f#	8a	.
=47	=47	=47	=47
4D	4e-	4g	4dd]
2r	8a	8cc	[2cc
.	8g	8b-	.
.	8f#	8a	.
.	8e	8g	.
=48	=48	=48	=48
4D	4d	4f#	4cc]
4GG	4G	4g	8b-
.	.	.	8a
8G	8g	8g	8g
8F	8f	8f	8f
=49	=49	=49	=49
8E-	8e-	8e-	8e-
8D	8d	8d	8d
8C	8c	8c	8c
8BB-	8B-	8B-	8B-
8AA	8A	8A	8A
8GG	8G	8G	8G
=50	=50	=50	=50
4D	4d	4d	4d
2r	2r	2r	2r
=51	=51	=51	=51
4GG	4G	2.r	4g
4BB-	4B-	.	8dd
.	.	.	8cc
4D	4d	.	8b-
.	.	.	8a
=52	=52	=52	=52
4G	4g	4g	4.b-
4r	4r	8dd	.
.	.	8cc	8a
4D	4d	8b-	8g
.	.	8a	8f#
=53	=53	=53	=53
4G	4g	4.b-	4g
4r	4r	.	8dd
.	.	8a	8cc
4D	4d	8g	8b-
.	.	8f#	8a
=54	=54	=54	=54
4G	4g	4g	4b-
4r	4r	4r	8gg
.	.	.	8ff
4B	4b	4g	8ee-
.	.	.	8dd
=55	=55	=55	=55
4c	4cc	4g	4ee-
2r	2r	8ee-	8ccc
.	.	8dd	8bb-
.	.	8cc	8aa
.	.	8b-	8gg
=56	=56	=56	=56
4D	4d	2a	2ff#
8d	8dd	.	.
8c	8cc	.	.
4B-	4b-	4b-	4gg
=57	=57	=57	=57
4c	4cc	12cc	12ee-
.	.	12b-	12dd
.	.	12a	12cc
4d	4dd	4g	4b-
4D	4d	4f#	4a
=58	=58	=58	=58
4G	4g	2g	2g
4D	4d	.	.
4GG	4G	4r	4r
==	==	==	==
*-	*-	*-	*-
!!!RWG1: This file contains only pitch and duration data.
!!!RWG2: Transposing instruments are not transposed.
!!!RWG3: Spines may have incompatible meters.
!!!RWG4: Durations of rests and tied notes may be interpreted.
!!!RWG: Key is interpreted using the Humdrum key tool.
!!!GTL: 10 Divertimentos
!!!AFT: stage1
!!!END: 1997/04/15
!!!KEY: 1518403868
!!!EMD: Converted from MuseData to Humdrum Dec 16, 2000, by Andreas Kornstaedt using muse2kern.
!!!EMD: Manual editing by Craig Sapp, Nov 2001
